!!!OTL: GUTEN ABEND LIEBES KIND
!!!ARE: Europa, Mitteleuropa, Deutschland, Niederrhein
!!!SCT: E0728A
!!!YEM: Copyright 1995, estate of Helmut Schaffrath.
**kern
*ICvox
*Ivox
*M4/4
*k[f#]
*G:
{4.g
8a
=1
4b
4b
4a
4dd
=2
4g
4r}
{4.b
8cc
=3
4dd
4dd
4ee
4dd
=4
2.cc}
{8a
8b
=5
4cc
4cc
4dd
8dd
8cc
=6
2.b}
{8g
8a
=7
4b
4b
4a
4dd
=8
4g
4r}
==
!!!AGN: Liebes - Lied, Leid, Klage; Gesang mit Pantomime
!! +++ 262, 264: Endtoene verlaengert, weil sonst Taktart falsch. +++
!!!ONB: ESAC (Essen Associative Code) Database: ERK2
!!!AMT: simple quadruple
!!!AIN: vox
!!!EED: Helmut Schaffrath
!!!EEV: 1.0
*-
